X:28
%%etbk:tnset id:10,pos:1,rep:3x,ant:
%%etbk:wsite http://www.thesession.org/tunes/display/1365
%%etbk:video src:ytube,cde:gOxRdGiXx84,desc:2nd tune
%%etbk:color #ffe6e6
%%etbk:pldat 2016-07-25T18:30,2015-07-07T09:50,2015-01-22T19:34,2015-01-21T17:38,2015-01-20T16:09,2014-12-30T18:26,2014-12-13T16:02,2014-09-30T16:10,2014-09-26T17:56,2014-05-21T19:09,2014-03-23T16:04,2014-02-15T15:59,2014-02-10T18:48,2014-02-07T15:33,2014-02-05T17:41,2014-02-04T18:59,2013-12-11T19:11,2013-12-04T18:04,2013-11-23T15:13,2013-11-17T15:22,2013-08-28T15:48,2013-05-06T18:23,2013-05-01T15:54
Z: Piano Box Version by Martin Fleischmann
H: Created 2013-02-19 /  Last Modified 2016-05-16
T: Blackberry Blossom, The
M: 4/4
L: 1/8
R: reel
K: Gmaj
!4!g!2!e | !1!d!2!B!1!A!3!c !2!B!1!GG!1!A | !2!B2!2!BA !2!B!3!d!5!g!4!e | !3!d!2!B!1!A!3!c !2!B!1!G !3!(3G!2!G!1!G |1 !2!e!5!aag !5!age!4!g :|2 !2!e!5!aag !5!a!4!g!1!e!2!f :|
!3!g2gf gaba | !3!gggb !4!agef | !3!gggf !3!gbag | !1!e!4!aag !4!agef|
!3!g2gf !3!gaba | !3!gggb !4!a2ga | !5!bg!4!af !4!gf!2!e!1!d | !2!e!5!aa!4!g !5!a2||


